X: 1007
T: The Laccaroo Boys
N:"Collected by F.O'Neill"
B:O'Neill's 1007
Z:Transcribed by Dan G. Petersen, dangp@post6.tele.dk
M:6/8
L:1/8
K:Am
(A/G/)|EAA A>Bc|BAG (B>d)d|efe dge|dBG G2(A/G/)|
EAA A>Bc|BAG (B>d)d|efe deg|(e3/2d/c/B/) A2:|
(B/A/)|GBd gab|B>AG (B>d)d|eaa a^ga|(b3/2a/g/^f/) e2f|
gag gab|B>AG (B>d)d|efe deg|(e3/2d/c/B/) A2:|


